X:34
T:Come all ye worthy - Pinkney
%%VWML:SBG-1-2-133-0
F:http://www.vwml.org/record/SBG/1/2/133
Z:Original Sibelius transcriptions by M. & S. Graebe
M:4/4
I:linebreak $
K:G
V:1 treble nm="P1"
V:1
 D/ | G F G A | B e d z/ G/ | F D c F | G3 z/ d/ | d A A B |$ c B G z/ d/ | d A G B | B3 z/ d/ | %9
 e d B A | B c B z/ G/ |$ ^F D F G | E3 z/ D/ | G A B c | d e d z/ B/ | A D B A | G2 x2 | %17
T:Come all ye worthy - Dingle
F:http://www.vwml.org/record/SBG/1/2/133
Z:Original Sibelius transcriptions by M. & S. Graebe
M:4/4
I:linebreak $
K:Bb
V:1 treble nm="P1"
V:1
 D | G G F D | B2 c B/c/ | d B c/B/ A | G3 D | G G F D | B B c B/c/ |$ d B c B/A/ | G3 d/=e/ | %9
 f d d/c/ B | c f d c | d G G D/=E/ |$ F3 D | G G F D | B B c B/c/ | d B c B/A/ | G3 x | %17
T:Come all ye worthy - songbook
F:http://www.vwml.org/record/SBG/1/2/133
Z:Original Sibelius transcriptions by M. & S. Graebe
M:4/4
I:linebreak $
K:Bb
V:1 treble nm="P1"
V:1
 D | G G F D | B2 c (B/c/) | d B (c/B/) A | G3 D | G G F D |$ B B c B/c/ | d B c B/ A/ | %8
w: Come|all ye worthy- *|Christ- ians that _|dwell with- in _ this|land Don't|spend your time in|rioting _ _ recol- *|lect you are but a|
 G3 (d/=e/) | f d (d/c/) B | c f d c |$ d G G (D/=E/) | F3 D/D/ | G G F D | B B c (B/c/) | %15
w: man. Be _|watchful * of _ your|latter _ end be|ready _ when you're _|called There is|many * changes *|in this world some _|
 d B c (B/A/) | G3 x | %17
w: rise and some do _|fall|

